layouts/icon-pack/spell_heal.svg

<?xml version="1.0" encoding="UTF-8"?>
<svg width="1200pt" height="1200pt" version="1.1" viewBox="0 0 1200 1200" xmlns="http://www.w3.org/2000/svg">
 <g fill="#fff">
  <path d="m423.91 821.02c61.895 43.863 119.03 94.094 170.46 149.86 5.0898 5.5859 12.297 8.7656 19.852 8.7656 7.5547 0 14.762-3.1797 19.852-8.7656 51.418-55.773 108.54-106 170.44-149.86 0 0 147.84-102.47 137.67-250.34-10.172-147.87-140.62-169.9-140.62-169.9s-96.094-23.438-168.56 50.789c-4.9453 5.0195-11.699 7.8477-18.75 7.8477s-13.805-2.8281-18.75-7.8477c-72.492-74.109-168.66-50.789-168.66-50.789s-130.29 21.961-140.62 169.8 137.7 250.43 137.7 250.43z"/>
  <path d="m867.19 994.95c67.969 24 94.922 85.547 103.64 133.59 1.6172 9.0234 16.406 8.9297 18.445 0 11.297-48.023 27.961-105.73 103.64-133.59 7.0312-2.625 7.7812-14.789 0.53906-16.992-37.758-11.578-87.773-33.375-104.11-127.55-1.5938-9.2578-16.406-9.1406-18.586 0-17.625 76.219-61.219 112.12-104.11 127.55-7.1484 2.5547-6.6328 14.461 0.53906 16.992z"/>
  <path d="m333.35 199.22c-37.781-11.578-87.773-33.375-104.11-127.52-1.6172-9.375-16.406-9.1641-18.586 0-17.625 76.195-61.219 112.08-104.11 127.52-7.0312 2.5547-6.6094 14.461 0.51562 16.992 67.969 24 94.922 85.547 103.64 133.59 1.6406 9 16.406 8.9062 18.469 0 11.273-48.047 27.938-105.75 103.64-133.59 7.0312-2.6484 7.7578-14.812 0.53906-16.992z"/>
  <path d="m859.66 231.14c-5.2031 1.875-4.8281 10.594 0.39844 12.422 49.734 17.555 69.422 62.578 75.797 97.711 1.1953 6.6094 11.977 6.5391 13.523 0 8.25-35.156 20.438-77.344 75.797-97.711 5.2031-1.8984 5.6719-10.805 0.39844-12.422-27.633-8.4609-64.195-24.398-76.148-93.281-1.1953-6.7734-12.07-6.7031-13.617 0-12.891 55.758-44.766 82.008-76.148 93.281z"/>
 </g>
</svg>

<?xml version="1.0" encoding="UTF-8" standalone="no"?>
<!DOCTYPE svg PUBLIC "-//W3C//DTD SVG 1.1//EN" "http://www.w3.org/Graphics/SVG/1.1/DTD/svg11.dtd">
<svg width="100%" height="100%" viewBox="0 0 477 512" version="1.1" xmlns="http://www.w3.org/2000/svg" xmlns:xlink="http://www.w3.org/1999/xlink" xml:space="preserve" xmlns:serif="http://www.serif.com/" style="fill-rule:evenodd;clip-rule:evenodd;stroke-linejoin:round;stroke-miterlimit:2;">
    <g transform="matrix(1,0,0,1,-101.487,-64.7476)">
        <g transform="matrix(0.47827,0,0,0.47827,52.949,33.7808)">
            <path d="M423.91,821.02C485.805,864.883 542.94,915.114 594.37,970.88C599.46,976.466 606.667,979.646 614.222,979.646C621.777,979.646 628.984,976.466 634.074,970.88C685.492,915.107 742.614,864.88 804.514,821.02C804.514,821.02 952.354,718.55 942.184,570.68C932.012,422.81 801.564,400.78 801.564,400.78C801.564,400.78 705.47,377.342 633.004,451.569C628.059,456.588 621.305,459.417 614.254,459.417C607.203,459.417 600.449,456.589 595.504,451.569C523.012,377.46 426.844,400.78 426.844,400.78C426.844,400.78 296.554,422.741 286.224,570.58C275.894,718.419 423.924,821.01 423.924,821.01L423.91,821.02Z" style="fill:white;fill-rule:nonzero;"/>
            <path d="M867.19,994.95C935.159,1018.95 962.112,1080.5 970.83,1128.54C972.447,1137.56 987.236,1137.47 989.275,1128.54C1000.57,1080.52 1017.24,1022.81 1092.91,994.95C1099.95,992.325 1100.7,980.161 1093.45,977.958C1055.7,966.38 1005.68,944.583 989.344,850.408C987.75,841.15 972.938,841.267 970.758,850.408C953.133,926.627 909.539,962.528 866.648,977.958C859.5,980.513 860.015,992.419 867.187,994.95L867.19,994.95Z" style="fill:white;fill-rule:nonzero;"/>
            <path d="M333.35,199.22C295.569,187.642 245.577,165.845 229.24,71.7C227.623,62.325 212.834,62.536 210.654,71.7C193.029,147.895 149.435,183.78 106.544,199.22C99.513,201.775 99.935,213.681 107.06,216.212C175.029,240.212 201.982,301.759 210.7,349.802C212.34,358.802 227.106,358.708 229.169,349.802C240.442,301.755 257.107,244.052 332.809,216.212C339.84,213.564 340.566,201.4 333.348,199.22L333.35,199.22Z" style="fill:white;fill-rule:nonzero;"/>
            <path d="M859.66,231.14C854.457,233.015 854.832,241.734 860.058,243.562C909.792,261.117 929.48,306.14 935.855,341.273C937.051,347.882 947.832,347.812 949.378,341.273C957.628,306.117 969.816,263.929 1025.17,243.562C1030.38,241.664 1030.85,232.757 1025.57,231.14C997.941,222.679 961.379,206.742 949.426,137.859C948.231,131.086 937.356,131.156 935.809,137.859C922.918,193.617 891.043,219.867 859.661,231.14L859.66,231.14Z" style="fill:white;fill-rule:nonzero;"/>
        </g>
    </g>
</svg>
